X: 1744
T: Apples In Winter
R: jig
M: 6/8
K: Edorian
A|BEE dEE|BAG FEF|DED FDF|AFA d2c|
BEE BAB|def gfe|fdB AGF|GEE E2:|

